panels/wacom/wacom-stylus.svg

<?xml version="1.0" encoding="UTF-8" standalone="no"?>
<!-- Created with Inkscape (http://www.inkscape.org/) -->

<svg
   id="svg86343"
   version="1.1"
   inkscape:version="1.3 (0e150ed6c4, 2023-07-21)"
   width="190"
   height="32"
   sodipodi:docname="wacom-stylus.svg"
   viewBox="0 0 190 32"
   xmlns:inkscape="http://www.inkscape.org/namespaces/inkscape"
   xmlns:sodipodi="http://sodipodi.sourceforge.net/DTD/sodipodi-0.dtd"
   xmlns="http://www.w3.org/2000/svg"
   xmlns:svg="http://www.w3.org/2000/svg"
   xmlns:rdf="http://www.w3.org/1999/02/22-rdf-syntax-ns#"
   xmlns:cc="http://creativecommons.org/ns#"
   xmlns:dc="http://purl.org/dc/elements/1.1/">
  <metadata
     id="metadata86349">
    <rdf:RDF>
      <cc:Work
         rdf:about="">
        <dc:format>image/svg+xml</dc:format>
        <dc:type
           rdf:resource="http://purl.org/dc/dcmitype/StillImage" />
      </cc:Work>
    </rdf:RDF>
  </metadata>
  <defs
     id="defs86347" />
  <sodipodi:namedview
     pagecolor="#ffffff"
     bordercolor="#666666"
     borderopacity="1"
     objecttolerance="10"
     gridtolerance="10"
     guidetolerance="10"
     inkscape:pageopacity="0"
     inkscape:pageshadow="2"
     inkscape:window-width="1080"
     inkscape:window-height="651"
     id="namedview86345"
     showgrid="true"
     inkscape:snap-nodes="false"
     inkscape:snap-bbox="true"
     inkscape:zoom="1.9779054"
     inkscape:cx="84.685547"
     inkscape:cy="92.016534"
     inkscape:window-x="0"
     inkscape:window-y="0"
     inkscape:window-maximized="1"
     inkscape:current-layer="svg86343"
     borderlayer="true"
     inkscape:showpageshadow="false"
     inkscape:pagecheckerboard="0"
     fit-margin-top="0"
     fit-margin-left="0"
     fit-margin-right="0"
     fit-margin-bottom="0"
     inkscape:deskcolor="#d1d1d1">
    <inkscape:grid
       type="xygrid"
       id="grid86802"
       empspacing="5"
       visible="true"
       enabled="true"
       snapvisiblegridlinesonly="true"
       originx="-2.9802322e-08"
       originy="-1"
       spacingy="1"
       spacingx="1"
       units="px" />
  </sodipodi:namedview>
  <g
     style="display:inline;stroke:none"
     transform="rotate(90,-55.655502,534.766)"
     id="g10545">
    <path
       sodipodi:nodetypes="sscsscsccccccccccccccscsscsss"
       inkscape:connector-curvature="0"
       id="stylus"
       class="stylus"
       d="m -577.72619,289.12088 c -2.3083,0 -3.2326,1.49535 -3.69531,4.51323 l -0.46875,6.52214 h -1.40625 c -1.9944,0 -3.59375,1.59935 -3.59375,3.59375 v 116.40625 l -2.53125,29.125 c -0.1873,2.15512 1.62589,3.92035 3.75,4.125 l 4.625,10.90625 h 1.53125 v 2.15625 l 3.61536,8.62766 0.92029,0.0104 v 3.00374 c 0,1 1.5581,1 1.5581,0 v -3 l 0.6436,5e-4 3.76265,-8.611 v -2.1875 h 1.53125 l 4.65625,-10.96875 c 1.96694,-0.35188 3.54637,-2.02216 3.40625,-4.0625 l -2.46875,-29.125 V 303.75 c 0,-1.9944 -1.59935,-3.59375 -3.59375,-3.59375 h -1.40625 l -0.53125,-6.52214 c -0.23272,-2.85711 -1.26201,-4.51323 -3.69531,-4.51323 z"
       style="color:#000000;display:inline;overflow:visible;visibility:visible;fill:#d3d7cf;fill-opacity:1;fill-rule:nonzero;stroke:none;stroke-width:1px;stroke-linecap:butt;stroke-linejoin:miter;stroke-miterlimit:4;stroke-dasharray:none;stroke-dashoffset:0;stroke-opacity:1;marker:none;enable-background:accumulate" />
    <rect
       style="color:#000000;display:inline;overflow:visible;visibility:visible;fill:#eeeeec;fill-opacity:1;fill-rule:nonzero;stroke:none;stroke-width:1px;stroke-linecap:butt;stroke-linejoin:miter;stroke-miterlimit:4;stroke-dasharray:none;stroke-dashoffset:0;stroke-opacity:1;marker:none;enable-background:accumulate"
       id="button1"
       class="button"
       width="9.0000067"
       height="22"
       x="-578.42151"
       y="385.90625"
       rx="4.5000033"
       ry="4.5000033" />
    <rect
       ry="4.5000033"
       rx="4.5000033"
       y="410.90625"
       x="-578.42151"
       height="12.25"
       width="9.0000067"
       id="button2"
       class="button"
       style="color:#000000;display:inline;overflow:visible;visibility:visible;fill:#eeeeec;fill-opacity:1;fill-rule:nonzero;stroke:none;stroke-width:1px;stroke-linecap:butt;stroke-linejoin:miter;stroke-miterlimit:4;stroke-dasharray:none;stroke-dashoffset:0;stroke-opacity:1;marker:none;enable-background:accumulate" />
  </g>
</svg>

<?xml version="1.0" encoding="UTF-8" standalone="no"?>
<!-- Created with Inkscape (http://www.inkscape.org/) -->

<svg
   id="svg86343"
   version="1.1"
   inkscape:version="1.3.2 (091e20ef0f, 2023-11-25)"
   width="190"
   height="32"
   sodipodi:docname="wacom-stylus.svg"
   viewBox="0 0 190 32"
   xmlns:inkscape="http://www.inkscape.org/namespaces/inkscape"
   xmlns:sodipodi="http://sodipodi.sourceforge.net/DTD/sodipodi-0.dtd"
   xmlns="http://www.w3.org/2000/svg"
   xmlns:svg="http://www.w3.org/2000/svg"
   xmlns:rdf="http://www.w3.org/1999/02/22-rdf-syntax-ns#"
   xmlns:cc="http://creativecommons.org/ns#"
   xmlns:dc="http://purl.org/dc/elements/1.1/">
  <metadata
     id="metadata86349">
    <rdf:RDF>
      <cc:Work
         rdf:about="">
        <dc:format>image/svg+xml</dc:format>
        <dc:type
           rdf:resource="http://purl.org/dc/dcmitype/StillImage" />
      </cc:Work>
    </rdf:RDF>
  </metadata>
  <defs
     id="defs86347" />
  <sodipodi:namedview
     pagecolor="#ffffff"
     bordercolor="#666666"
     borderopacity="1"
     objecttolerance="10"
     gridtolerance="10"
     guidetolerance="10"
     inkscape:pageopacity="0"
     inkscape:pageshadow="2"
     inkscape:window-width="1080"
     inkscape:window-height="651"
     id="namedview86345"
     showgrid="true"
     inkscape:snap-nodes="false"
     inkscape:snap-bbox="true"
     inkscape:zoom="9.4763035"
     inkscape:cx="74.132282"
     inkscape:cy="23.16304"
     inkscape:window-x="0"
     inkscape:window-y="0"
     inkscape:window-maximized="1"
     inkscape:current-layer="g10545"
     borderlayer="true"
     inkscape:showpageshadow="false"
     inkscape:pagecheckerboard="0"
     fit-margin-top="0"
     fit-margin-left="0"
     fit-margin-right="0"
     fit-margin-bottom="0"
     inkscape:deskcolor="#d1d1d1">
    <inkscape:grid
       type="xygrid"
       id="grid86802"
       empspacing="5"
       visible="true"
       enabled="true"
       snapvisiblegridlinesonly="true"
       originx="-2.9802322e-08"
       originy="-1"
       spacingy="1"
       spacingx="1"
       units="px" />
  </sodipodi:namedview>
  <g
     style="display:inline;stroke:none"
     transform="rotate(90,-55.655502,534.766)"
     id="g10545">
    <path
       id="stylus"
       style="color:#000000;display:inline;overflow:visible;visibility:visible;fill:#d3d7cf;fill-opacity:1;fill-rule:nonzero;stroke:none;stroke-width:1px;stroke-linecap:butt;stroke-linejoin:miter;stroke-miterlimit:4;stroke-dasharray:none;stroke-dashoffset:0;stroke-opacity:1;marker:none;enable-background:accumulate"
       class="stylus"
       d="M -589.4215 449.28042 C -589.6088 451.43554 -587.79561 453.20077 -585.6715 453.40542 L -581.0465 464.31167 L -579.51525 464.31167 L -579.51525 466.46792 L -575.90002 475.09683 L -574.9801 475.10659 L -574.9801 478.1105 C -574.9801 479.1105 -573.4215 479.1105 -573.4215 478.1105 L -573.4215 475.1105 L -572.77697 475.1105 L -569.01525 466.49917 L -569.01525 464.31167 L -567.484 464.31167 L -562.82775 453.34292 C -560.86081 452.99104 -559.28138 451.32076 -559.4215 449.28042 L -561.89025 420.15542 L -561.89025 303.74917 C -561.89025 301.75477 -563.4896 300.15542 -565.484 300.15542 L -566.89025 300.15542 L -567.4215 293.63394 C -567.65422 290.77683 -568.68352 289.12026 -571.11681 289.12026 L -577.72619 289.12026 C -580.03449 289.12026 -580.95879 290.61606 -581.4215 293.63394 L -581.89025 300.15542 L -583.2965 300.15542 C -585.2909 300.15542 -586.89025 301.75477 -586.89025 303.74917 L -586.89025 420.15542 L -589.4215 449.28042 z M -578.4215 418.65542 L -578.4215 415.40542 C -578.4215 412.91242 -576.4145 410.90542 -573.9215 410.90542 C -571.4285 410.90542 -569.4215 412.91242 -569.4215 415.40542 L -569.4215 418.65542 C -569.4215 421.14842 -571.4285 423.15542 -573.9215 423.15542 C -576.4145 423.15542 -578.4215 421.14842 -578.4215 418.65542 z M -578.4215 403.40542 L -578.4215 390.40542 C -578.4215 387.91242 -576.4145 385.90542 -573.9215 385.90542 C -571.4285 385.90542 -569.4215 387.91242 -569.4215 390.40542 L -569.4215 403.40542 C -569.4215 405.89842 -571.4285 407.90542 -573.9215 407.90542 C -576.4145 407.90542 -578.4215 405.89842 -578.4215 403.40542 z " />
  </g>
</svg>
